X:41
T:Drowsy Maggie setting 3 (r)
B:NFID.068a
041dr_magg3
S:JD
N:If you get tired of the single-note triplets, you can
replace |(3EEE| with |^DE| or |DE| and |(3ddd| with |^cd|
or |(3d^cd|.
L:1/8
M:C
R:reel
Q:360
K:Em
E2BE ^ceBe|(3EEE BG FADF|E2Bd ^cEBc|dfe^c dAFD|
(3EEE Bd ^cEBE|E2BG FADF|E2Bd ^ceBc|dfe^c dAFA||
d2fd d^cBd|^cAea ceAc|(3ddd fd d^cBA|^gbeg ae^cA|
(3ddd fd d^cBd|^cdef gbag|fge^c dcBA|^GAB^c dAFA|
d2fd d^cBd|(3^cBA eA ceAc|(3d^cd fd dcBA|^GAB^c dAFA|
(3ddd fd d^cBd|^cdef gbag|fge^c dcBA|^GAB^c dAFD|]

%%%

